; generated by PrusaSlicer 2.4.0+arm64 on 2022-01-17 at 13:59:17 UTC


;
;

;
;
; 

; external perimeters extrusion width = 0.70mm
; perimeters extrusion width = 0.70mm
; infill extrusion width = 0.70mm
; solid infill extrusion width = 0.70mm
; top infill extrusion width = 0.60mm
; first layer extrusion width = 0.70mm

; external perimeters extrusion width = 0.70mm
; perimeters extrusion width = 0.70mm
; infill extrusion width = 0.70mm
; solid infill extrusion width = 0.70mm
; top infill extrusion width = 0.60mm
; first layer extrusion width = 0.70mm

; external perimeters extrusion width = 0.70mm
; perimeters extrusion width = 0.70mm
; infill extrusion width = 0.70mm
; solid infill extrusion width = 0.70mm
; top infill extrusion width = 0.60mm
; first layer extrusion width = 0.70mm

; external perimeters extrusion width = 0.70mm
; perimeters extrusion width = 0.70mm
; infill extrusion width = 0.70mm
; solid infill extrusion width = 0.70mm
; top infill extrusion width = 0.60mm
; first layer extrusion width = 0.70mm

; external perimeters extrusion width = 0.70mm
; perimeters extrusion width = 0.70mm
; infill extrusion width = 0.70mm
; solid infill extrusion width = 0.70mm
; top infill extrusion width = 0.60mm
; first layer extrusion width = 0.70mm

; external perimeters extrusion width = 0.70mm
; perimeters extrusion width = 0.70mm
; infill extrusion width = 0.70mm
; solid infill extrusion width = 0.70mm
; top infill extrusion width = 0.60mm
; first layer extrusion width = 0.70mm

; external perimeters extrusion width = 0.70mm
; perimeters extrusion width = 0.70mm
; infill extrusion width = 0.70mm
; solid infill extrusion width = 0.70mm
; top infill extrusion width = 0.60mm
; first layer extrusion width = 0.70mm

M73 P0 R45
M201 X800 Y800 Z500 E5000 ; sets maximum accelerations, mm/sec^2
M203 X500 Y500 Z12 E120 ; sets maximum feedrates, mm/sec
M204 P1500 R1500 T1500 ; sets acceleration (P, T) and retract acceleration (R), mm/sec^2
M205 X8.00 Y8.00 Z0.20 E2.50 ; sets the jerk limits, mm/sec
M205 S0 T0 ; sets the minimum extruding and travel feed rate, mm/sec
M107 ; disable fan
;TYPE:Custom
M605 S1 ; Set to auto-park



;M104 S240] T1; set nozzle temp for Extruder 2
M104 S240 T0; set nozzle temp and wait for temp to be reached


M140 S80 ; Set Heat Bed temperature
;M104 S240 ; Set Extruder temperature
G28 ;Home
M190 S80 ; Wait for Heat Bed temperature
G1 Z15.0 F6000 ;Move the platform down 15mm

;Prime the extruder
G92 E0 ; Reset Extruder
G1 Z2.0 F3000 ; Move Z Axis up little to prevent scratching of Heat Bed
G1 X10 Y20 Z0.3 F5000.0 ; Move to start position
M109 S240 ; Wait for Extruder temperature

;G1 X10 Y200.0 Z0.2 F1500.0 E15 ; Draw the first line
;G1 X10.3 Y200.0 Z0.2 F5000.0 ; Move to side a little
;G1 X10.3 Y20 Z0.2 F1500.0 E30 ; Draw the second line
G92 E0 ; Reset Extruder

G1 Z2.0 F3000 ; Move Z Axis up little to prevent scratching of Heat Bed
G1 X14 Y20 Z0.2 F5000.0 ; Move over to prevent blob squish

;P2PP PRINTERPROFILE=de2ab45aa9d4b8d8

;P2PP EXTRAENDFILAMENT=270

;IDEX_PASS1_ADD:;P2PP LINEARPINGLENGTH=3500


;P2PP LINEARPINGLENGTH=350


;PASS1P2PP ACCESSORYMODE_MAF

;IDEX_PASS1_START_GCODE_REPL:LINEARPINGLENGTH=350>LINEARPINGLENGTH=3500,PASS1P2PP>P2PP



;P2PP SPLICEOFFSET=80
;P2PP P3_MINIMALTOTALFILAMENT=1200
 

;P2PP MATERIAL_DEFAULT_0_0_0
;P2PP MATERIAL_PVA_PVA_0_0_0
;P2PP MATERIAL_PVA_PLA_0_0_0
;P2PP MATERIAL_PLA_PLA_0_0_0
;P2PP MATERIAL_PET_PET_0_0_0
;P2PP MATERIAL_PETG_PETG_0_0_0

;P2PP CONSOLEWAIT
;P2PP SAVEUNPROCESSED



;IDEX_SPARSE_Z_ADJUST=-0.1


; For the first pass virtual Extuders 4-7 are all shifted to 1-4 for creation of an offline strip of 4 colour filament
;IDEX_PASS1_TRANSLATE:T3=T0,T4=T1,T5=T2,T6=T3
; For the second pass extruders 4-7 are all shifted to 4 which will contain to 4 colour filament
;IDEX_PASS2_TRANSLATE:T6=T3,T5=T3,T4=T3
;IDEX_PASS1_SWAPAROUND1:filament_settings_id,extruder_colour,filament_colour,filament_diameter,filament_type,first_layer_bed_temperature,first_layer_temperature,retract_length,retract_lift

; Colour conversions for IDEXP2PPCol script
;IDEX P2PPCOLCONV=#C2302A,#FF0000,PETG 01 RED

;IDEX P2PPCOLCONV=#0D0D0D,#000000,PETG 02 BLACK

;IDEX P2PPCOLCONV=#DF6D27,#FFA500,PETG 03 ORANGE

;IDEX P2PPCOLCONV=#3B408A,#0000FF,PETG 04 BLUE

;IDEX P2PPCOLCONV=#F2C10F,#FFFF00,PETG 05 YELLOW

;IDEX P2PPCOLCONV=#FFFFFF,#FFFFFF,PETG 06 WHITE

;IDEX P2PPCOLCONV=#0D0D0D,#000000,PETG 07 BLACK

;IDEX P2PPCOLCONV=#E54130,#FF0000,PETG 08 RED

;IDEX P2PPCOLCONV=#E54130,#FF0000,PETG 09 RED

;IDEX P2PPCOLCONV=#07227D,#0000FF,PETG 10 BLUE

;IDEX P2PPCOLCONV=#EA740F,#FFA500,PETG 11 ORANGE

;IDEX P2PPCOLCONV=#FAFFFF,#FFFFFF,PETG 12 WHITE

;IDEX P2PPCOLCONV=#F2F2F2,#FFFFFF,PETG 13 CLEAR

;IDEX P2PPCOLCONV=#552123,#A52A2A,PETG 14 BROWN

;IDEX P2PPCOLCONV=#259954,#008000,PETG 15 GREEN

;IDEX P2PPCOLCONV=#B3B9D0,#808080,PETG 16 GREY

;IDEX P2PPCOLCONV=#F2C10F,#FFFF00,PETG 17 YELLOW-T

;IDEX P2PPCOLCONV=#963A99,#800080,PETG 18 PURPLE

;IDEX P2PPCOLCONV=#1CB4F5,#0000FF,PETG 19 BLUE
G21 ; set units to millimeters
G90 ; use absolute coordinates
M83 ; use relative distances for extrusion
; TOOL CHANGE ---START---
; next_extruder 0


;IDEX_START_IGNORE_PASS1
;IDEX_ADD_G1_Z:  Add back in last G1 Z removed by P2PP.



; TOOL CHANGE ---END---
T0 ; change extruder
; Filament gcode
G1 Z.2 F12000 ; Move to the first layer height
M107 ; disable fan
;LAYER_CHANGE
;Z:0.2
;HEIGHT:0.2
;BEFORE_LAYER_CHANGE
G92 E0.0
;0.2

G1 E-3 F1500 ; retract
G1 Z1.2 F12000 ; lift Z
;AFTER_LAYER_CHANGE
;LAYER 0
;LAYERHEIGHT 0.2

; printing object E1-17-Yellow Duck- PETG- Misc id:0 copy 0
G1 X81.714 Y199.009 ; move to first perimeter point
G1 Z.2 ; restore layer Z
G1 E3 F1500 ;  ; unretract
M204 S500 ; adjust acceleration
;TYPE:Perimeter
;WIDTH:0.7
;HEIGHT:0.2
G1 F1200
G1 X82.431 Y199.032 E.0333 ; perimeter
G1 X83.548 Y199.15 E.05219 ; perimeter
G1 X84.654 Y199.348 E.05219 ; perimeter
G1 X85.743 Y199.627 E.05219 ; perimeter
G1 X86.809 Y199.983 E.05219 ; perimeter
G1 X87.846 Y200.417 E.05219 ; perimeter
G1 X88.849 Y200.924 E.05219 ; perimeter
G1 X89.812 Y201.503 E.05219 ; perimeter
G1 X90.731 Y202.15 E.05219 ; perimeter
G1 X91.6 Y202.863 E.05219 ; perimeter
G1 X92.415 Y203.636 E.05219 ; perimeter
G1 X93.172 Y204.467 E.05219 ; perimeter
G1 X93.866 Y205.35 E.05219 ; perimeter
G1 X94.495 Y206.282 E.05219 ; perimeter
G1 X94.826 Y206.859 E.03091 ; perimeter
G1 X81.114 Y206.859 E.6368 ; perimeter
G1 X81.114 Y199.009 E.36458 ; perimeter
G1 X81.624 Y199.006 E.02367 ; perimeter
;WIPE_START
G1 F9600
G1 X82.431 Y199.032 E-.1198 ; wipe and retract
G1 X83.548 Y199.15 E-.16682 ; wipe and retract
G1 X84.654 Y199.348 E-.16682 ; wipe and retract
G1 X85.743 Y199.627 E-.16682 ; wipe and retract
G1 X86.809 Y199.983 E-.16682 ; wipe and retract
G1 X87.846 Y200.417 E-.16682 ; wipe and retract
G1 X88.849 Y200.924 E-.16682 ; wipe and retract
G1 X89.812 Y201.503 E-.16682 ; wipe and retract
G1 X90.731 Y202.15 E-.16682 ; wipe and retract
G1 X91.6 Y202.863 E-.16682 ; wipe and retract
G1 X92.415 Y203.636 E-.16682 ; wipe and retract
G1 X93.172 Y204.467 E-.16682 ; wipe and retract
G1 X93.866 Y205.35 E-.16682 ; wipe and retract
G1 X94.495 Y206.282 E-.16682 ; wipe and retract
G1 X94.826 Y206.859 E-.09878 ; wipe and retract
G1 X91.709 Y206.859 E-.46276 ; wipe and retract
;WIPE_END
G1 E-.15 F1500 ; retract
G1 Z1.2 F12000 ; lift Z
G1 X80.457 Y198.374 ; move to first perimeter point
G1 Z.2 ; restore layer Z
G1 E3 F1500 ;  ; unretract
;TYPE:External perimeter
G1 F1200
G1 X81.403 Y198.341 E.04398 ; perimeter
G1 X82.476 Y198.376 E.04982 ; perimeter
G1 X83.641 Y198.499 E.05441 ; perimeter
G1 X84.794 Y198.706 E.05441 ; perimeter
G1 X85.929 Y198.996 E.05441 ; perimeter
G1 X87.04 Y199.368 E.05441 ; perimeter
G1 X88.121 Y199.82 E.05441 ; perimeter
G1 X89.167 Y200.349 E.05441 ; perimeter
G1 X90.171 Y200.952 E.05441 ; perimeter
G1 X91.129 Y201.627 E.05441 ; perimeter
G1 X92.035 Y202.37 E.05441 ; perimeter
G1 X92.885 Y203.176 E.05441 ; perimeter
G1 X93.674 Y204.042 E.05441 ; perimeter
G1 X94.398 Y204.963 E.05441 ; perimeter
G1 X95.053 Y205.934 E.05441 ; perimeter
G1 X95.636 Y206.951 E.05441 ; perimeter
G1 X95.908 Y207.516 E.02915 ; perimeter
G1 X80.457 Y207.516 E.71756 ; perimeter
G1 X80.457 Y198.464 E.42039 ; perimeter
G1 X81.05 Y198.467 F12000 ; move inwards before travel
;WIPE_START
G1 F9600
G1 X81.403 Y198.341 E-.14165 ; wipe and retract
G1 X82.476 Y198.376 E-.15924 ; wipe and retract
G1 X83.641 Y198.499 E-.17391 ; wipe and retract
G1 X84.794 Y198.706 E-.17391 ; wipe and retract
G1 X85.929 Y198.996 E-.17391 ; wipe and retract
G1 X87.04 Y199.368 E-.17391 ; wipe and retract
G1 X88.121 Y199.82 E-.17391 ; wipe and retract
G1 X89.167 Y200.349 E-.17391 ; wipe and retract
G1 X90.171 Y200.952 E-.17391 ; wipe and retract
G1 X91.129 Y201.627 E-.17391 ; wipe and retract
G1 X92.035 Y202.37 E-.17392 ; wipe and retract
G1 X92.885 Y203.176 E-.17391 ; wipe and retract
G1 X93.674 Y204.042 E-.17391 ; wipe and retract
G1 X94.398 Y204.963 E-.17391 ; wipe and retract
G1 X95.053 Y205.934 E-.17391 ; wipe and retract
G1 X95.636 Y206.951 E-.17391 ; wipe and retract
G1 X95.908 Y207.516 E-.09318 ; wipe and retract
G1 X95.766 Y207.516 E-.02115 ; wipe and retract
;WIPE_END
G1 E-.15 F1500 ; retract
G1 Z1.2 F12000 ; lift Z
G1 X113.605 Y206.859 ; move to first perimeter point
G1 Z.2 ; restore layer Z
G1 E3 F1500 ;  ; unretract
;TYPE:Perimeter
G1 F1200
G1 X146.434 Y194.056 E1.63645 ; perimeter
G1 X148.329 Y194.017 E.08803 ; perimeter
G1 X148.386 Y194.393 E.01766 ; perimeter
G1 X148.502 Y194.894 E.0239 ; perimeter
G1 X148.662 Y195.41 E.02508 ; perimeter
G1 X148.873 Y195.938 E.0264 ; perimeter
G1 X149.159 Y196.482 E.02852 ; perimeter
G1 X149.538 Y197.034 E.0311 ; perimeter
G1 X149.897 Y197.439 E.02514 ; perimeter
G1 X150.321 Y197.809 E.02613 ; perimeter
G1 X150.799 Y198.132 E.02679 ; perimeter
G1 X151.32 Y198.387 E.02693 ; perimeter
G1 X151.905 Y198.577 E.02856 ; perimeter
G1 X152.469 Y198.686 E.0267 ; perimeter
G1 X153.013 Y198.729 E.02531 ; perimeter
G1 X153.533 Y198.723 E.02417 ; perimeter
G1 X153.967 Y198.688 E.02021 ; perimeter
G1 X154.44 Y198.607 E.02231 ; perimeter
G1 X154.948 Y198.454 E.02465 ; perimeter
G1 X155.47 Y198.209 E.02677 ; perimeter
G1 X155.849 Y197.954 E.02124 ; perimeter
G1 X156.163 Y197.68 E.01933 ; perimeter
G1 X156.425 Y197.403 E.01771 ; perimeter
G1 X156.708 Y197.023 E.02199 ; perimeter
G1 X156.967 Y196.901 E.01329 ; perimeter
G1 X157.147 Y196.848 E.0087 ; perimeter
G1 X158.241 Y196.855 E.05082 ; perimeter
G1 X158.567 Y196.824 E.01519 ; perimeter
G1 X159.123 Y196.705 E.02645 ; perimeter
G1 X159.461 Y196.58 E.0167 ; perimeter
G1 X159.827 Y196.376 E.01949 ; perimeter
G1 X160.207 Y196.069 E.02269 ; perimeter
G1 X160.485 Y195.75 E.01965 ; perimeter
G1 X160.717 Y195.376 E.02042 ; perimeter
G1 X160.896 Y194.954 E.0213 ; perimeter
G1 X161.001 Y194.49 E.02212 ; perimeter
G1 X161.015 Y193.996 E.02295 ; perimeter
G1 X160.948 Y193.561 E.02044 ; perimeter
G1 X160.832 Y193.195 E.0178 ; perimeter
G1 X160.693 Y192.897 E.01529 ; perimeter
G1 X160.479 Y192.552 E.01886 ; perimeter
G1 X160.236 Y192.257 E.01772 ; perimeter
G1 X159.83 Y191.903 E.02504 ; perimeter
G1 X159.286 Y191.548 E.03019 ; perimeter
G1 X158.702 Y191.287 E.02968 ; perimeter
G1 X158.172 Y191.128 E.02572 ; perimeter
G1 X157.642 Y191.036 E.02497 ; perimeter
G1 X157.127 Y190.999 E.02396 ; perimeter
G1 X156.647 Y191.011 E.02233 ; perimeter
G1 X156.162 Y191.064 E.02266 ; perimeter
G1 X155.248 Y191.222 E.04308 ; perimeter
G1 X154.875 Y191.234 E.01732 ; perimeter
G1 X154.863 Y190.768 E.02165 ; perimeter
G1 X178.534 Y181.536 E1.17996 ; perimeter
G1 X178.534 Y196.682 E.70337 ; perimeter
G1 X137.986 Y206.859 E1.94151 ; perimeter
G1 X113.695 Y206.859 E1.12809 ; perimeter
;WIPE_START
G1 F9600
G1 X131.576 Y199.866 E-2.85 ; wipe and retract
;WIPE_END
G1 E-.15 F1500 ; retract
G1 Z1.2 F12000 ; lift Z
G1 X110.112 Y207.516 ; move to first perimeter point
G1 Z.2 ; restore layer Z
G1 E3 F1500 ;  ; unretract
;TYPE:External perimeter
G1 F1200
G1 X146.304 Y193.401 E1.80409 ; perimeter
G1 X148.438 Y193.358 E.09915 ; perimeter
G1 X148.901 Y193.408 E.02164 ; perimeter
G1 X149.031 Y194.27 E.04048 ; perimeter
G1 X149.137 Y194.722 E.02159 ; perimeter
G1 X149.282 Y195.191 E.02277 ; perimeter
G1 X149.471 Y195.663 E.02361 ; perimeter
G1 X149.723 Y196.142 E.02515 ; perimeter
G1 X150.056 Y196.629 E.02739 ; perimeter
G1 X150.361 Y196.971 E.0213 ; perimeter
G1 X150.722 Y197.288 E.0223 ; perimeter
G1 X151.129 Y197.562 E.02276 ; perimeter
G1 X151.567 Y197.776 E.02267 ; perimeter
G1 X152.069 Y197.94 E.02452 ; perimeter
G1 X152.558 Y198.034 E.02311 ; perimeter
G1 X153.035 Y198.072 E.02224 ; perimeter
G1 X153.503 Y198.067 E.02173 ; perimeter
G1 X153.885 Y198.036 E.01778 ; perimeter
G1 X154.289 Y197.966 E.01907 ; perimeter
G1 X154.713 Y197.839 E.02054 ; perimeter
G1 X155.145 Y197.636 E.02218 ; perimeter
G1 X155.448 Y197.431 E.01699 ; perimeter
G1 X155.707 Y197.206 E.01596 ; perimeter
G1 X155.921 Y196.979 E.01445 ; perimeter
G1 X156.275 Y196.517 E.02704 ; perimeter
G1 X156.443 Y196.416 E.00911 ; perimeter
G1 X156.731 Y196.287 E.01466 ; perimeter
G1 X157.087 Y196.191 E.01713 ; perimeter
G1 X158.212 Y196.197 E.05224 ; perimeter
G1 X158.467 Y196.174 E.01187 ; perimeter
G1 X158.94 Y196.072 E.02249 ; perimeter
G1 X159.186 Y195.982 E.01215 ; perimeter
G1 X159.458 Y195.83 E.01447 ; perimeter
G1 X159.749 Y195.594 E.01743 ; perimeter
G1 X159.955 Y195.358 E.01454 ; perimeter
G1 X160.132 Y195.073 E.01557 ; perimeter
G1 X160.268 Y194.752 E.01619 ; perimeter
G1 X160.346 Y194.407 E.01641 ; perimeter
G1 X160.356 Y194.037 E.01723 ; perimeter
G1 X160.307 Y193.711 E.01531 ; perimeter
G1 X160.219 Y193.435 E.01343 ; perimeter
G1 X160.114 Y193.21 E.01153 ; perimeter
G1 X159.944 Y192.935 E.01502 ; perimeter
G1 X159.763 Y192.717 E.01316 ; perimeter
G1 X159.433 Y192.428 E.02037 ; perimeter
G1 X158.97 Y192.127 E.02566 ; perimeter
G1 X158.473 Y191.904 E.02529 ; perimeter
G1 X158.021 Y191.769 E.02193 ; perimeter
G1 X157.562 Y191.689 E.02164 ; perimeter
G1 X157.113 Y191.657 E.02091 ; perimeter
G1 X156.691 Y191.668 E.01958 ; perimeter
G1 X156.253 Y191.715 E.02045 ; perimeter
G1 X155.334 Y191.874 E.04334 ; perimeter
G1 X155.076 Y191.897 E.01203 ; perimeter
G1 X154.586 Y191.883 E.02277 ; perimeter
G1 X154.249 Y191.808 E.01602 ; perimeter
G1 X154.228 Y191.614 E.0091 ; perimeter
G1 X154.194 Y190.324 E.05992 ; perimeter
G1 X179.191 Y180.574 E1.24606 ; perimeter
G1 X179.191 Y197.194 E.77183 ; perimeter
G1 X138.067 Y207.516 E1.96908 ; perimeter
G1 X110.202 Y207.516 E1.29408 ; perimeter
M73 P1 R45
G1 X110.685 Y207.341 F12000 ; move inwards before travel
;WIPE_START
G1 F9600
G1 X128.084 Y200.525 E-2.85 ; wipe and retract
;WIPE_END
G1 E-.15 F1500 ; retract
G1 Z1.2 F12000 ; lift Z
G1 X152.396 Y168.346 ; move to first perimeter point
G1 Z.2 ; restore layer Z
G1 E3 F1500 ;  ; unretract
;TYPE:Perimeter
G1 F1200
G1 X152.583 Y168.481 E.01072 ; perimeter
G1 X153.488 Y167.762 E.05371 ; perimeter
G1 X153.802 Y167.431 E.02117 ; perimeter
G1 X154.085 Y167.023 E.02309 ; perimeter
G1 X154.312 Y166.539 E.02478 ; perimeter
G1 X154.452 Y165.989 E.02637 ; perimeter
G1 X154.478 Y165.394 E.02766 ; perimeter
G1 X154.398 Y164.836 E.02618 ; perimeter
G1 X154.245 Y164.328 E.02465 ; perimeter
G1 X154.039 Y163.862 E.02366 ; perimeter
G1 X153.631 Y163.161 E.03766 ; perimeter
G1 X153.158 Y162.496 E.03791 ; perimeter
G1 X151.512 Y160.385 E.12431 ; perimeter
G1 X150.907 Y159.542 E.04819 ; perimeter
G1 X150.33 Y158.687 E.0479 ; perimeter
G1 X149.796 Y157.841 E.04648 ; perimeter
G1 X148.713 Y156.019 E.09843 ; perimeter
G1 X148.348 Y155.445 E.03158 ; perimeter
G1 X147.964 Y154.897 E.03108 ; perimeter
G1 X147.544 Y154.38 E.03093 ; perimeter
G1 X147.075 Y153.902 E.03108 ; perimeter
G1 X146.558 Y153.487 E.03082 ; perimeter
G1 X146.191 Y153.253 E.0202 ; perimeter
G1 X145.815 Y153.053 E.0198 ; perimeter
G1 X145.052 Y152.751 E.03808 ; perimeter
G1 X152.197 Y145.434 E.47496 ; perimeter
G1 X178.534 Y145.434 E1.2231 ; perimeter
G1 X178.534 Y152.342 E.32082 ; perimeter
G1 X98.006 Y204.327 E4.45136 ; perimeter
