O21 D0014
O22 Dde2ab45aa9d4b8d8
O23 D0001
O24 D0000
O25 D1FFFFFFPETG_06_WHITE_ArtistD D1FF0000PETG_03_ORANGE_ArtistD D1000000PETG_02_BLACK_ARTISTD D1A52A2APETG_14_BROWN_ArtistD
O26 D0007
O27 D0006
O28 D0001
O29 D0000
O30 D0 D431aff6b
O30 D1 D43b72a2c
O30 D3 D4483b386
O30 D0 D44a26dc7
O30 D1 D44c02d8e
O30 D3 D44fd7898
O30 D2 D45231210
O32 D11 D0000 D0000 D0000
O1 DOWL_7xP2PP_0.3mm_PETG__29m D00000a31
M0
T0
;Splice Information:
;-------------------
;       Splice Offset =    80.00mm
;       Autoloading Offset =     0.00mm

;0001   Input: 1  Location:     0.00mm   length   155.00mm 
;0002   Input: 2  Location:   155.00mm   length   211.33mm 
;0003   Input: 4  Location:   366.33mm   length   687.28mm 
;0004   Input: 1  Location:  1053.61mm   length   245.82mm 
;0005   Input: 2  Location:  1299.43mm   length   237.99mm 
;0006   Input: 4  Location:  1537.42mm   length   490.34mm 
;0007   Input: 3  Location:  2027.77mm   length   581.36mm 

;Ping Information:
;-----------------
;Ping 0001 at   350.90mm
;Ping 0002 at   701.06mm
;Ping 0003 at  1052.50mm
;Ping 0004 at  1402.50mm
;Ping 0005 at  1757.41mm
;Ping 0006 at  2107.42mm

;------------------------:
; - Process Info/Warnings:
;------------------------:
;Generated with P2PP version 8.00.17
;Processed file:. 
;P2PP Processing time  0.25s
;No warnings


;--------- THIS CODE HAS BEEN PROCESSED BY P2PP v8.00.17 --- 

T0
; generated by PrusaSlicer 2.4.0+arm64 on 2022-01-18 at 08:22:13 UTC


;
;

;
;
;

; external perimeters extrusion width = 0.70mm
; perimeters extrusion width = 0.70mm
; infill extrusion width = 0.70mm
; solid infill extrusion width = 0.70mm
; top infill extrusion width = 0.60mm
; first layer extrusion width = 0.70mm

; external perimeters extrusion width = 0.70mm
; perimeters extrusion width = 0.70mm
; infill extrusion width = 0.70mm
; solid infill extrusion width = 0.70mm
; top infill extrusion width = 0.60mm
; first layer extrusion width = 0.70mm

; external perimeters extrusion width = 0.70mm
; perimeters extrusion width = 0.70mm
; infill extrusion width = 0.70mm
; solid infill extrusion width = 0.70mm
; top infill extrusion width = 0.60mm
; first layer extrusion width = 0.70mm

; external perimeters extrusion width = 0.70mm
; perimeters extrusion width = 0.70mm
; infill extrusion width = 0.70mm
; solid infill extrusion width = 0.70mm
; top infill extrusion width = 0.60mm
; first layer extrusion width = 0.70mm

; external perimeters extrusion width = 0.70mm
; perimeters extrusion width = 0.70mm
; infill extrusion width = 0.70mm
; solid infill extrusion width = 0.70mm
; top infill extrusion width = 0.60mm
; first layer extrusion width = 0.70mm

; external perimeters extrusion width = 0.70mm
; perimeters extrusion width = 0.70mm
; infill extrusion width = 0.70mm
; solid infill extrusion width = 0.70mm
; top infill extrusion width = 0.60mm
; first layer extrusion width = 0.70mm

; external perimeters extrusion width = 0.70mm
; perimeters extrusion width = 0.70mm
; infill extrusion width = 0.70mm
; solid infill extrusion width = 0.70mm
; top infill extrusion width = 0.60mm
; first layer extrusion width = 0.70mm

M73 P0 R28
M201 X800.0 Y800.0 Z500.0 E5000.00000 ; sets maximum accelerations, mm/sec^2
M203 X500.0 Y500.0 Z12.0 E120.00000 ; sets maximum feedrates, mm/sec
M204 P1500 R1500 T1500 ; sets acceleration (P, T) and retract acceleration (R), mm/sec^2
M205 X8.0 Y8.0 Z0.2 E2.50000 ; sets the jerk limits, mm/sec
M205 S0 T0 ; sets the minimum extruding and travel feed rate, mm/sec
M107 ; disable fan
;TYPE:Custom
M605 S1 ; Set to auto-park



;M104 S240] T1; set nozzle temp for Extruder 2
M104 S240 T0 ; set nozzle temp and wait for temp to be reached


M140 S80 ; Set Heat Bed temperature
;M104 S240 ; Set Extruder temperature
G28 ;Home
M190 S80 ; Wait for Heat Bed temperature
G1 Z15.000 F6000 ;Move the platform down 15mm

;Prime the extruder
G92 E0.00000 ; Reset Extruder
G1 Z2.000 F3000 ; Move Z Axis up little to prevent scratching of Heat Bed
G1 X10.000 Y20.000 Z0.300 F5000 ; Move to start position
M109 S240 ; Wait for Extruder temperature

;G1 X10 Y200.0 Z0.2 F1500.0 E15 ; Draw the first line
;G1 X10.3 Y200.0 Z0.2 F5000.0 ; Move to side a little
;G1 X10.3 Y20 Z0.2 F1500.0 E30 ; Draw the second line
G92 E0.00000 ; Reset Extruder

G1 Z2.000 F3000 ; Move Z Axis up little to prevent scratching of Heat Bed
G1 X14.000 Y20.000 Z0.200 F5000 ; Move over to prevent blob squish

;P2PP PRINTERPROFILE=de2ab45aa9d4b8d8

;P2PP EXTRAENDFILAMENT=270

;IDEX_PASS1_ADD:;P2PP LINEARPINGLENGTH=3500


;P2PP LINEARPINGLENGTH=350


;PASS1P2PP ACCESSORYMODE_MAF

;IDEX_PASS1_START_GCODE_REPL:LINEARPINGLENGTH=350>LINEARPINGLENGTH=3500,PASS1P2PP>P2PP



;P2PP SPLICEOFFSET=80
;P2PP P3_MINIMALTOTALFILAMENT=1200


;P2PP MATERIAL_DEFAULT_0_0_0
;P2PP MATERIAL_PVA_PVA_0_0_0
;P2PP MATERIAL_PVA_PLA_0_0_0
;P2PP MATERIAL_PLA_PLA_0_0_0
;P2PP MATERIAL_PET_PET_0_0_0
;P2PP MATERIAL_PETG_PETG_0_0_0

;P2PP CONSOLEWAIT
;P2PP SAVEUNPROCESSED



;IDEX_SPARSE_Z_ADJUST=-0.1


; For the first pass virtual Extuders 4-7 are all shifted to 1-4 for creation of an offline strip of 4 colour filament
;IDEX_PASS1_TRANSLATE:T3=T0,T4=T1,T5=T2,T6=T3
; For the second pass extruders 4-7 are all shifted to 4 which will contain to 4 colour filament
;IDEX Picked up: T6=T3
;IDEX Picked up: T5=T3
;IDEX Picked up: T4=T3
;IDEX_PASS1_SWAPAROUND1:filament_settings_id,extruder_colour,filament_colour,filament_diameter,filament_type,first_layer_bed_temperature,first_layer_temperature,retract_length,retract_lift

; Colour conversions for IDEXP2PPCol script
;IDEX COLLECTED:;IDEX P2PPCOLCONV=#C2302A,#FF0000,PETG 01 RED

;IDEX COLLECTED:;IDEX P2PPCOLCONV=#0D0D0D,#000000,PETG 02 BLACK

;IDEX COLLECTED:;IDEX P2PPCOLCONV=#DF6D27,#FFA500,PETG 03 ORANGE

;IDEX COLLECTED:;IDEX P2PPCOLCONV=#3B408A,#0000FF,PETG 04 BLUE

;IDEX COLLECTED:;IDEX P2PPCOLCONV=#F2C10F,#FFFF00,PETG 05 YELLOW

;IDEX COLLECTED:;IDEX P2PPCOLCONV=#FFFFFF,#FFFFFF,PETG 06 WHITE

;IDEX COLLECTED:;IDEX P2PPCOLCONV=#0D0D0D,#000000,PETG 07 BLACK

;IDEX COLLECTED:;IDEX P2PPCOLCONV=#E54130,#FF0000,PETG 08 RED

;IDEX COLLECTED:;IDEX P2PPCOLCONV=#E54130,#FF0000,PETG 09 RED

;IDEX COLLECTED:;IDEX P2PPCOLCONV=#07227D,#0000FF,PETG 10 BLUE

;IDEX COLLECTED:;IDEX P2PPCOLCONV=#EA740F,#FFA500,PETG 11 ORANGE

;IDEX COLLECTED:;IDEX P2PPCOLCONV=#FAFFFF,#FFFFFF,PETG 12 WHITE

;IDEX COLLECTED:;IDEX P2PPCOLCONV=#F2F2F2,#FFFFFF,PETG 13 CLEAR

;IDEX COLLECTED:;IDEX P2PPCOLCONV=#552123,#A52A2A,PETG 14 BROWN

;IDEX COLLECTED:;IDEX P2PPCOLCONV=#259954,#008000,PETG 15 GREEN

;IDEX COLLECTED:;IDEX P2PPCOLCONV=#B3B9D0,#808080,PETG 16 GREY

;IDEX COLLECTED:;IDEX P2PPCOLCONV=#F2C10F,#FFFF00,PETG 17 YELLOW-T

;IDEX COLLECTED:;IDEX P2PPCOLCONV=#963A99,#800080,PETG 18 PURPLE

;IDEX COLLECTED:;IDEX P2PPCOLCONV=#1CB4F5,#0000FF,PETG 19 BLUE
G21 ; set units to millimeters
G90 ; use absolute coordinates
M83 ; use relative distances for extrusion
; TOOL CHANGE ---START---
; next_extruder 0


;IDEX_START_IGNORE_PASS1
;IDEX_ADD_G1_Z:  Add back in last G1 Z removed by P2PP.



; TOOL CHANGE ---END---
; [--P2PP-- Color Change] - T0
; Filament gcode
G1 Z0.200 F12000 ; Move to the first layer height
M107 ; disable fan
;LAYER_CHANGE
;Z:0.2
;HEIGHT:0.2
;BEFORE_LAYER_CHANGE
G92 E0.00000
;0.2

G1 E-3.00000 F1500 ; retract
G1 Z1.200 F12000 ; lift Z
;AFTER_LAYER_CHANGE
;LAYER 0
;LAYERHEIGHT 0.2

; printing object E1-06 White- PETG- PRUSAMENT id:0 copy 0
G1 X88.001 Y171.440 ; move to first perimeter point
G1 Z0.200 ; restore layer Z
G1 E3.00000 F1500 ;  ; unretract
M204 S500 ; adjust acceleration
;TYPE:External perimeter
;WIDTH:0.7
;HEIGHT:0.2
G1 F1200
G1 X88.373 Y171.305 E0.01839 ; perimeter
G1 X88.821 Y171.220 E0.02117 ; perimeter
G1 X89.134 Y171.192 E0.01459 ; perimeter
G1 X89.530 Y171.194 E0.01842 ; perimeter
G1 X90.319 Y171.278 E0.03682 ; perimeter
G1 X90.730 Y171.349 E0.01941 ; perimeter
G1 X91.479 Y171.518 E0.03565 ; perimeter
G1 X92.165 Y171.734 E0.03341 ; perimeter
G1 X92.666 Y171.971 E0.02571 ; perimeter
G1 X92.926 Y172.147 E0.01459 ; perimeter
G1 X93.136 Y172.333 E0.01301 ; perimeter
G1 X93.334 Y172.574 E0.01451 ; perimeter
G1 X93.462 Y172.795 E0.01185 ; perimeter
G1 X93.543 Y172.989 E0.00978 ; perimeter
G1 X93.623 Y173.281 E0.01406 ; perimeter
G1 X93.668 Y173.623 E0.01600 ; perimeter
G1 X93.668 Y174.138 E0.02390 ; perimeter
G1 X93.550 Y175.124 E0.04612 ; perimeter
G1 X93.367 Y176.265 E0.05368 ; perimeter
G1 X93.283 Y176.666 E0.01904 ; perimeter
G1 X93.160 Y177.074 E0.01978 ; perimeter
G1 X92.978 Y177.493 E0.02122 ; perimeter
G1 X92.726 Y177.915 E0.02281 ; perimeter
G1 X92.512 Y178.201 E0.01660 ; perimeter
G1 X92.154 Y178.586 E0.02440 ; perimeter
G1 X91.855 Y178.843 E0.01834 ; perimeter
G1 X91.545 Y179.061 E0.01758 ; perimeter
G1 X91.216 Y179.244 E0.01751 ; perimeter
G1 X90.871 Y179.386 E0.01731 ; perimeter
G1 X90.517 Y179.481 E0.01700 ; perimeter
G1 X90.162 Y179.527 E0.01663 ; perimeter
G1 X89.813 Y179.526 E0.01620 ; perimeter
G1 X89.490 Y179.486 E0.01516 ; perimeter
G1 X89.153 Y179.403 E0.01609 ; perimeter
G1 X88.785 Y179.264 E0.01828 ; perimeter
G1 X88.470 Y179.105 E0.01638 ; perimeter
G1 X88.180 Y178.921 E0.01592 ; perimeter
G1 X87.846 Y178.657 E0.01978 ; perimeter
G1 X87.544 Y178.352 E0.01994 ; perimeter
G1 X87.356 Y178.116 E0.01400 ; perimeter
G1 X87.110 Y177.736 E0.02102 ; perimeter
G1 X86.957 Y177.444 E0.01532 ; perimeter
G1 X86.756 Y176.972 E0.02384 ; perimeter
G1 X86.634 Y176.616 E0.01748 ; perimeter
G1 X86.442 Y175.858 E0.03632 ; perimeter
G1 X86.333 Y175.042 E0.03822 ; perimeter
G1 X86.317 Y174.617 E0.01976 ; perimeter
G1 X86.332 Y174.199 E0.01943 ; perimeter
G1 X86.380 Y173.788 E0.01919 ; perimeter
G1 X86.464 Y173.392 E0.01882 ; perimeter
G1 X86.585 Y173.015 E0.01837 ; perimeter
G1 X86.745 Y172.658 E0.01817 ; perimeter
G1 X87.059 Y172.174 E0.02681 ; perimeter
G1 X87.284 Y171.928 E0.01550 ; perimeter
G1 X87.557 Y171.697 E0.01657 ; perimeter
G1 X87.923 Y171.485 E0.01965 ; perimeter
G1 X88.037 Y171.045 F12000 ; move inwards before travel
;WIPE_START
G1 F9600
G1 X88.373 Y171.305 E-0.07195 ; wipe and retract
G1 X88.821 Y171.220 E-0.06766 ; wipe and retract
G1 X89.134 Y171.192 E-0.04663 ; wipe and retract
G1 X89.530 Y171.194 E-0.05888 ; wipe and retract
G1 X90.319 Y171.278 E-0.11769 ; wipe and retract
G1 X90.730 Y171.349 E-0.06203 ; wipe and retract
G1 X91.479 Y171.518 E-0.11395 ; wipe and retract
G1 X92.165 Y171.734 E-0.10679 ; wipe and retract
G1 X92.666 Y171.971 E-0.08217 ; wipe and retract
G1 X92.926 Y172.147 E-0.04663 ; wipe and retract
G1 X93.136 Y172.333 E-0.04160 ; wipe and retract
G1 X93.334 Y172.574 E-0.04639 ; wipe and retract
G1 X93.462 Y172.795 E-0.03789 ; wipe and retract
G1 X93.543 Y172.989 E-0.03126 ; wipe and retract
G1 X93.623 Y173.281 E-0.04493 ; wipe and retract
G1 X93.668 Y173.623 E-0.05113 ; wipe and retract
G1 X93.668 Y174.138 E-0.07639 ; wipe and retract
G1 X93.550 Y175.124 E-0.14741 ; wipe and retract
G1 X93.367 Y176.265 E-0.17159 ; wipe and retract
G1 X93.283 Y176.666 E-0.06086 ; wipe and retract
G1 X93.160 Y177.074 E-0.06323 ; wipe and retract
G1 X92.978 Y177.493 E-0.06784 ; wipe and retract
G1 X92.726 Y177.915 E-0.07290 ; wipe and retract
G1 X92.512 Y178.201 E-0.05305 ; wipe and retract
G1 X92.154 Y178.586 E-0.07798 ; wipe and retract
G1 X91.855 Y178.843 E-0.05861 ; wipe and retract
G1 X91.545 Y179.061 E-0.05620 ; wipe and retract
G1 X91.216 Y179.244 E-0.05597 ; wipe and retract
G1 X90.871 Y179.386 E-0.05532 ; wipe and retract
G1 X90.517 Y179.481 E-0.05435 ; wipe and retract
G1 X90.162 Y179.527 E-0.05316 ; wipe and retract
G1 X89.813 Y179.526 E-0.05179 ; wipe and retract
G1 X89.490 Y179.486 E-0.04844 ; wipe and retract
G1 X89.153 Y179.403 E-0.05142 ; wipe and retract
G1 X88.785 Y179.264 E-0.05844 ; wipe and retract
G1 X88.470 Y179.105 E-0.05236 ; wipe and retract
G1 X88.180 Y178.921 E-0.05089 ; wipe and retract
G1 X87.846 Y178.657 E-0.06323 ; wipe and retract
G1 X87.544 Y178.352 E-0.06374 ; wipe and retract
G1 X87.356 Y178.116 E-0.04474 ; wipe and retract
G1 X87.110 Y177.736 E-0.06720 ; wipe and retract
G1 X86.957 Y177.444 E-0.04897 ; wipe and retract
G1 X86.756 Y176.972 E-0.07620 ; wipe and retract
G1 X86.712 Y176.844 E-0.02015 ; wipe and retract
;WIPE_END
G1 E-0.15000 F1500 ; retract
G1 Z1.200 F12000 ; lift Z
G1 X84.542 Y175.967 ; move to first perimeter point
G1 Z0.200 ; restore layer Z
G1 E3.00000 F1500 ;  ; unretract
;TYPE:Perimeter
G1 F1200
G1 X84.583 Y175.703 E0.01242 ; perimeter
G1 X84.729 Y175.176 E0.02540 ; perimeter
G1 X84.926 Y174.616 E0.02754 ; perimeter
G1 X85.262 Y173.884 E0.03741 ; perimeter
G1 X85.581 Y173.357 E0.02860 ; perimeter
G1 X85.927 Y172.916 E0.02602 ; perimeter
G1 X85.828 Y173.223 E0.01495 ; perimeter
G1 X85.731 Y173.681 E0.02176 ; perimeter
G1 X85.676 Y174.148 E0.02183 ; perimeter
G1 X85.660 Y174.617 E0.02180 ; perimeter
G1 X85.678 Y175.098 E0.02234 ; perimeter
G1 X85.796 Y175.982 E0.04142 ; perimeter
G1 X86.003 Y176.803 E0.03932 ; perimeter
G1 X86.142 Y177.207 E0.01985 ; perimeter
G1 X86.362 Y177.726 E0.02618 ; perimeter
G1 X86.542 Y178.068 E0.01795 ; perimeter
G1 X86.822 Y178.501 E0.02395 ; perimeter
G1 X87.053 Y178.789 E0.01712 ; perimeter
G1 X87.407 Y179.148 E0.02341 ; perimeter
G1 X87.800 Y179.458 E0.02326 ; perimeter
G1 X88.145 Y179.677 E0.01898 ; perimeter
G1 X88.520 Y179.866 E0.01950 ; perimeter
G1 X88.958 Y180.031 E0.02175 ; perimeter
G1 X89.369 Y180.133 E0.01967 ; perimeter
G1 X89.771 Y180.183 E0.01881 ; perimeter
G1 X90.204 Y180.184 E0.02011 ; perimeter
G1 X90.646 Y180.127 E0.02068 ; perimeter
G1 X91.082 Y180.009 E0.02097 ; perimeter
G1 X91.501 Y179.837 E0.02103 ; perimeter
G1 X91.895 Y179.619 E0.02092 ; perimeter
G1 X92.259 Y179.362 E0.02071 ; perimeter
G1 X92.611 Y179.060 E0.02154 ; perimeter
G1 X93.017 Y178.623 E0.02769 ; perimeter
G1 X93.273 Y178.282 E0.01981 ; perimeter
G1 X93.564 Y177.794 E0.02639 ; perimeter
G1 X93.779 Y177.301 E0.02499 ; perimeter
G1 X93.920 Y176.828 E0.02289 ; perimeter
G1 X94.013 Y176.384 E0.02107 ; perimeter
G1 X94.201 Y175.215 E0.05502 ; perimeter
G1 X94.325 Y174.177 E0.04855 ; perimeter
G1 X94.325 Y173.580 E0.02771 ; perimeter
G1 X94.269 Y173.151 E0.02008 ; perimeter
G1 X94.166 Y172.775 E0.01812 ; perimeter
G1 X94.052 Y172.503 E0.01370 ; perimeter
G1 X93.911 Y172.259 E0.01310 ; perimeter
G1 X94.512 Y172.425 E0.02900 ; perimeter
G1 X94.904 Y172.557 E0.01921 ; perimeter
G1 X95.346 Y172.744 E0.02227 ; perimeter
G1 X95.647 Y172.900 E0.01575 ; perimeter
G1 X95.987 Y173.120 E0.01879 ; perimeter
G1 X96.275 Y173.361 E0.01746 ; perimeter
G1 X96.468 Y173.563 E0.01296 ; perimeter
G1 X96.689 Y173.859 E0.01718 ; perimeter
G1 X96.897 Y174.255 E0.02077 ; perimeter
G1 X96.887 Y174.531 E0.01281 ; perimeter
G1 X96.621 Y174.698 E0.01457 ; perimeter
G1 X96.842 Y175.691 E0.04723 ; perimeter
G1 X97.046 Y176.372 E0.03303 ; perimeter
G1 X97.703 Y178.173 E0.08905 ; perimeter
G1 X97.969 Y178.952 E0.03823 ; perimeter
G1 X98.212 Y179.760 E0.03919 ; perimeter
G1 X98.424 Y180.589 E0.03972 ; perimeter
G1 X98.601 Y181.415 E0.03924 ; perimeter
G1 X98.990 Y183.740 E0.10950 ; perimeter
G1 X97.469 Y183.463 E0.07183 ; perimeter
G1 X93.277 Y182.776 E0.19726 ; perimeter
G1 X91.296 Y182.375 E0.09385 ; perimeter
G1 X89.931 Y182.031 E0.06542 ; perimeter
G1 X88.589 Y181.613 E0.06524 ; perimeter
G1 X87.944 Y181.373 E0.03198 ; perimeter
G1 X87.331 Y181.113 E0.03091 ; perimeter
G1 X86.762 Y180.834 E0.02943 ; perimeter
G1 X86.021 Y180.391 E0.04010 ; perimeter
G1 X85.584 Y180.061 E0.02544 ; perimeter
G1 X85.421 Y179.918 E0.01006 ; perimeter
G1 X85.098 Y179.581 E0.02169 ; perimeter
G1 X84.754 Y179.088 E0.02790 ; perimeter
G1 X84.582 Y178.712 E0.01921 ; perimeter
G1 X84.460 Y178.309 E0.01955 ; perimeter
G1 X84.409 Y177.995 E0.01480 ; perimeter
G1 X84.536 Y176.057 E0.09018 ; perimeter
G1 X83.847 Y176.523 F12000 ; move to first perimeter point
;TYPE:External perimeter
G1 F1200
G1 X83.789 Y177.403 E0.04096 ; perimeter
G1 X83.006 Y177.350 E0.03647 ; perimeter
G1 X83.063 Y176.474 E0.04075 ; perimeter
G1 X83.757 Y176.517 E0.03230 ; perimeter
G1 X84.433 Y176.395 F12000 ; move inwards before travel
;WIPE_START
G1 F9600
