O21 D0014
O22 Dde2ab45aa9d4b8d8
O23 D0001
O24 D0000
O25 D1996633DarkOliveGreenPLA D1FB0207RedPLA D1FD8008DarkGoldenrodPLA D10000FFBluePLA
O26 D0004
O27 D0002
O28 D0001
O29 D0000
O30 D0 D4397497e
O30 D3 D43e34a8a
O30 D2 D44187a8d
O30 D1 D44b54000
O32 D11 D0000 D0000 D0000
O1 Dartistd_0.6_Dual_P2PP_Master_v3.3mf_0.3mm_PLA__8m D000005aa
M0
T0
;Splice Information:
;-------------------
;       Splice Offset =    30.00mm
;       Autoloading Offset =     0.00mm

;0001   Input: 1  Location:     0.00mm   length   302.57mm 
;0002   Input: 4  Location:   302.57mm   length   152.01mm 
;0003   Input: 3  Location:   454.58mm   length   155.33mm 
;0004   Input: 2  Location:   609.91mm   length   840.09mm 

;Ping Information:
;-----------------
;Ping 0001 at   351.19mm
;Ping 0002 at   701.59mm

;------------------------:
; - Process Info/Warnings:
;------------------------:
;Generated with P2PP version 8.00.17
;Processed file:. 
;P2PP Processing time  0.06s
;Minimum print size not met - adding 531.89.. of filament


;--------- THIS CODE HAS BEEN PROCESSED BY P2PP v8.00.17 --- 

T0
; generated by PrusaSlicer 2.4.0+arm64 on 2022-01-10 at 14:00:55 UTC


;
;

;
;
;

; external perimeters extrusion width = 0.70mm
; perimeters extrusion width = 0.70mm
; infill extrusion width = 0.70mm
; solid infill extrusion width = 0.70mm
; top infill extrusion width = 0.60mm
; first layer extrusion width = 0.70mm

; external perimeters extrusion width = 0.70mm
; perimeters extrusion width = 0.70mm
; infill extrusion width = 0.70mm
; solid infill extrusion width = 0.70mm
; top infill extrusion width = 0.60mm
; first layer extrusion width = 0.70mm

; external perimeters extrusion width = 0.70mm
; perimeters extrusion width = 0.70mm
; infill extrusion width = 0.70mm
; solid infill extrusion width = 0.70mm
; top infill extrusion width = 0.60mm
; first layer extrusion width = 0.70mm

; external perimeters extrusion width = 0.70mm
; perimeters extrusion width = 0.70mm
; infill extrusion width = 0.70mm
; solid infill extrusion width = 0.70mm
; top infill extrusion width = 0.60mm
; first layer extrusion width = 0.70mm

; external perimeters extrusion width = 0.70mm
; perimeters extrusion width = 0.70mm
; infill extrusion width = 0.70mm
; solid infill extrusion width = 0.70mm
; top infill extrusion width = 0.60mm
; first layer extrusion width = 0.70mm

M73 P0 R8
M201 X800.0 Y800.0 Z500.0 E5000.00000 ; sets maximum accelerations, mm/sec^2
M203 X500.0 Y500.0 Z12.0 E120.00000 ; sets maximum feedrates, mm/sec
M204 P1500 R1500 T1500 ; sets acceleration (P, T) and retract acceleration (R), mm/sec^2
M205 X8.0 Y8.0 Z0.2 E2.50000 ; sets the jerk limits, mm/sec
M205 S0 T0 ; sets the minimum extruding and travel feed rate, mm/sec
M107 ; disable fan
;TYPE:Custom
M605 S1 ; Set to auto-park
; [--P2PP-- Color Change] - T0


M104 S200] T1 ; set nozzle temp for Extruder 2
M104 S200 T0 ; set nozzle temp and wait for temp to be reached


M140 S50 ; Set Heat Bed temperature
M104 S200 ; Set Extruder temperature
G28 ;Home
M190 S50 ; Wait for Heat Bed temperature
G1 Z15.000 F6000 ;Move the platform down 15mm

;Prime the extruder
G92 E0.00000 ; Reset Extruder
G1 Z2.000 F3000 ; Move Z Axis up little to prevent scratching of Heat Bed
G1 X10.000 Y20.000 Z0.300 F5000 ; Move to start position
M109 S200 ; Wait for Extruder temperature

G1 X10.000 Y200.000 Z0.200 E15.00000 F1500 ; Draw the first line
G1 X10.300 Y200.000 Z0.200 F5000 ; Move to side a little
M73 P2 R8
G1 X10.300 Y20.000 Z0.200 E30.00000 F1500 ; Draw the second line
G92 E0.00000 ; Reset Extruder

G1 Z2.000 F3000 ; Move Z Axis up little to prevent scratching of Heat Bed
M73 P3 R7
G1 X14.000 Y20.000 Z0.200 F5000 ; Move over to prevent blob squish

;P2PP PRINTERPROFILE=de2ab45aa9d4b8d8

;P2PP EXTRAENDFILAMENT=120
;P2PP LINEARPINGLENGTH=350
;P2PP SPLICEOFFSET=30
;P2PP P3_MINIMALTOTALFILAMENT=1300

;P2PP MATERIAL_DEFAULT_0_0_0
;P2PP MATERIAL_PVA_PVA_0_0_0
;P2PP MATERIAL_PVA_PLA_0_0_0
;P2PP MATERIAL_PLA_PLA_0_0_0
;P2PP MATERIAL_PET_PET_0_0_0

;P2PP CONSOLEWAIT
;P2PP SAVEUNPROCESSED


G21 ; set units to millimeters
G90 ; use absolute coordinates
M83 ; use relative distances for extrusion
; TOOL CHANGE ---START---
; next_extruder 0



;IDEX Picked by Sparse Adjuster:;IDEX_SPARSE_Z_ADJUST=-0.1

; TOOL CHANGE ---END---
; [--P2PP-- Color Change] - T0
; Filament gcode
G1 F8640 ; correct speed
G1 Z0.200 F12000 ; Move to the first layer height
G1 X14.000 Y20.000 F8640  ;P2PP Position XY to avoid tower crash
M107 ; disable fan
;LAYER_CHANGE
;Z:0.2
;HEIGHT:0.2
;BEFORE_LAYER_CHANGE
G92 E0.00000
;0.2

G1 E-1.20000 F2400 ; retract
G1 Z0.250 F12000 ; lift Z
;AFTER_LAYER_CHANGE
;LAYER 0
;LAYERHEIGHT 0.2

; printing object Block1 id:0 copy 0
G1 X162.307 Y166.707 ; move to first perimeter point
G1 Z0.200 ; restore layer Z
G1 E1.20000 F2400 ;  ; unretract
M204 S1000 ; adjust acceleration
;TYPE:Perimeter
;WIDTH:0.7
;HEIGHT:0.2
G1 F1200
;P2PP START Z/E alignment processing
G1 Z0.200 F10800 ;P2PP correct z-moves
;P2PP END Z/E alignment processing
G1 X179.293 Y166.707 E0.78884 ; perimeter
G1 X179.293 Y174.293 E0.35229 ; perimeter
M73 P4 R7
G1 X161.707 Y174.293 E0.81670 ; perimeter
G1 X161.707 Y166.707 E0.35229 ; perimeter
G1 X162.217 Y166.707 E0.02368 ; perimeter
;WIPE_START
G1 F9600
G1 X167.017 Y166.707 E-1.14000 ; wipe and retract
;WIPE_END
G1 E-0.06000 F2400 ; retract
G1 Z0.250 F12000 ; lift Z
G1 X161.050 Y166.050 ; move to first perimeter point
G1 Z0.200 ; restore layer Z
G1 E1.20000 F2400 ;  ; unretract
;TYPE:External perimeter
G1 F1200
G1 X179.950 Y166.050 E0.87773 ; perimeter
G1 X179.950 Y174.950 E0.41332 ; perimeter
G1 X161.050 Y174.950 E0.87773 ; perimeter
G1 X161.050 Y166.140 E0.40914 ; perimeter
G1 X161.644 Y166.138 F12000 ; move inwards before travel
;WIPE_START
M73 P5 R7
G1 F9600
G1 X165.850 Y166.117 E-1.14000 ; wipe and retract
;WIPE_END
G1 E-0.06000 F2400 ; retract
G1 Z0.250 F12000 ; lift Z
G1 X177.747 Y166.904 ; move to first infill point
G1 Z0.200 ; restore layer Z
G1 E1.20000 F2400 ;  ; unretract
;TYPE:Solid infill
;WIDTH:0.70963
G1 F1200
G1 X178.800 Y167.957 E0.07017 ; infill
G1 X178.800 Y168.900 E0.04443 ; infill
G1 X177.100 Y167.200 E0.11330 ; infill
G1 X176.157 Y167.200 E0.04443 ; infill
G1 X178.800 Y169.843 E0.17613 ; infill
G1 X178.800 Y170.786 E0.04443 ; infill
G1 X175.214 Y167.200 E0.23896 ; infill
G1 X174.271 Y167.200 E0.04443 ; infill
G1 X178.800 Y171.729 E0.30180 ; infill
G1 X178.800 Y172.672 E0.04443 ; infill
G1 X173.328 Y167.200 E0.36463 ; infill
G1 X172.386 Y167.200 E0.04443 ; infill
G1 X178.800 Y173.614 E0.42746 ; infill
G1 X178.800 Y173.800 E0.00875 ; infill
G1 X178.043 Y173.800 E0.03568 ; infill
G1 X171.443 Y167.200 E0.43984 ; infill
G1 X170.500 Y167.200 E0.04443 ; infill
G1 X177.100 Y173.800 E0.43984 ; infill
G1 X176.157 Y173.800 E0.04443 ; infill
G1 X169.557 Y167.200 E0.43984 ; infill
G1 X168.614 Y167.200 E0.04443 ; infill
G1 X175.214 Y173.800 E0.43984 ; infill
G1 X174.271 Y173.800 E0.04443 ; infill
G1 X167.671 Y167.200 E0.43984 ; infill
G1 X166.728 Y167.200 E0.04443 ; infill
M73 P6 R7
G1 X173.329 Y173.800 E0.43984 ; infill
G1 X172.386 Y173.800 E0.04443 ; infill
G1 X165.786 Y167.200 E0.43984 ; infill
G1 X164.843 Y167.200 E0.04443 ; infill
G1 X171.443 Y173.800 E0.43984 ; infill
G1 X170.500 Y173.800 E0.04443 ; infill
G1 X163.900 Y167.200 E0.43984 ; infill
G1 X162.957 Y167.200 E0.04443 ; infill
G1 X169.557 Y173.800 E0.43984 ; infill
G1 X168.614 Y173.800 E0.04443 ; infill
G1 X162.200 Y167.386 E0.42746 ; infill
G1 X162.200 Y168.329 E0.04443 ; infill
G1 X167.671 Y173.800 E0.36462 ; infill
G1 X166.729 Y173.800 E0.04443 ; infill
G1 X162.200 Y169.271 E0.30179 ; infill
G1 X162.200 Y170.214 E0.04443 ; infill
G1 X165.786 Y173.800 E0.23896 ; infill
G1 X164.843 Y173.800 E0.04443 ; infill
G1 X162.200 Y171.157 E0.17612 ; infill
G1 X162.200 Y172.100 E0.04443 ; infill
G1 X163.900 Y173.800 E0.11329 ; infill
M73 P7 R7
G1 X162.957 Y173.800 E0.04443 ; infill
G1 X161.904 Y172.747 E0.07016 ; infill
; stop printing object Block1 id:0 copy 0
;LAYER_CHANGE
;Z:0.5
;HEIGHT:0.3
;BEFORE_LAYER_CHANGE
G92 E0.00000
;0.5

;WIPE_START
G1 F9600
G1 X162.957 Y173.800 E-0.35363 ; wipe and retract
G1 X163.900 Y173.800 E-0.22393 ; wipe and retract
G1 X162.225 Y172.126 E-0.56244 ; wipe and retract
;WIPE_END
G1 E-0.06000 F2400 ; retract
G1 Z0.250 F12000 ; lift Z
G1 Z0.500 ; move to next layer (1)
;AFTER_LAYER_CHANGE
;LAYER 1
;LAYERHEIGHT 0.5

; printing object Block1 id:0 copy 0
G1 Z0.550 ; lift Z
G1 X161.486 Y173.914 ; move to first perimeter point
G1 Z0.500 ; restore layer Z
G1 E1.20000 F2400 ;  ; unretract
M204 S800 ; adjust acceleration
;TYPE:Perimeter
;WIDTH:0.7
;HEIGHT:0.3
G1 F3000
G1 X161.486 Y166.486 E0.50060 ; perimeter
G1 X179.514 Y166.486 E1.21489 ; perimeter
G1 X179.514 Y174.514 E0.54103 ; perimeter
G1 X161.486 Y174.514 E1.21489 ; perimeter
G1 X161.486 Y174.004 E0.03437 ; perimeter
M204 S1000 ; adjust acceleration
;WIPE_START
G1 F9600
G1 X161.486 Y169.204 E-1.14000 ; wipe and retract
;WIPE_END
G1 E-0.06000 F2400 ; retract
G1 Z0.550 F12000 ; lift Z
G1 X160.850 Y175.150 ; move to first perimeter point
G1 Z0.500 ; restore layer Z
G1 E1.20000 F2400 ;  ; unretract
M204 S800 ; adjust acceleration
;TYPE:External perimeter
G1 F2100
G1 X160.850 Y165.850 E0.62669 ; perimeter
G1 X180.150 Y165.850 E1.30056 ; perimeter
G1 X180.150 Y175.150 E0.62669 ; perimeter
G1 X160.940 Y175.150 E1.29449 ; perimeter
M204 S1000 ; adjust acceleration
G1 X161.069 Y174.591 F12000 ; move inwards before travel
;WIPE_START
G1 F9600
G1 X160.894 Y170.350 E-1.14000 ; wipe and retract
;WIPE_END
G1 E-0.06000 F2400 ; retract
G1 Z0.550 F12000 ; lift Z
G1 X178.025 Y174.324 ; move to first infill point
G1 Z0.500 ; restore layer Z
G1 E1.20000 F2400 ;  ; unretract
;TYPE:Solid infill
;WIDTH:0.706381
G1 F4672
G1 X179.038 Y173.311 E0.09745 ; infill
G1 X179.038 Y172.403 E0.06180 ; infill
G1 X177.403 Y174.038 E0.15731 ; infill
G1 X176.495 Y174.038 E0.06180 ; infill
G1 X179.038 Y171.495 E0.24470 ; infill
G1 X179.038 Y170.588 E0.06180 ; infill
M73 P8 R7
G1 X175.588 Y174.038 E0.33209 ; infill
G1 X174.680 Y174.038 E0.06180 ; infill
G1 X179.038 Y169.680 E0.41948 ; infill
G1 X179.038 Y168.772 E0.06180 ; infill
G1 X173.772 Y174.038 E0.50688 ; infill
G1 X172.864 Y174.038 E0.06180 ; infill
G1 X179.038 Y167.864 E0.59427 ; infill
G1 X179.038 Y166.962 E0.06136 ; infill
G1 X171.956 Y174.038 E0.68135 ; infill
G1 X171.048 Y174.038 E0.06180 ; infill
G1 X178.123 Y166.962 E0.68104 ; infill
G1 X177.215 Y166.962 E0.06180 ; infill
G1 X170.140 Y174.038 E0.68104 ; infill
G1 X169.232 Y174.038 E0.06180 ; infill
G1 X176.307 Y166.962 E0.68104 ; infill
G1 X175.399 Y166.962 E0.06180 ; infill
G1 X168.324 Y174.038 E0.68104 ; infill
G1 X167.416 Y174.038 E0.06180 ; infill
G1 X174.492 Y166.962 E0.68104 ; infill
G1 X173.584 Y166.962 E0.06180 ; infill
G1 X166.508 Y174.038 E0.68104 ; infill
G1 X165.600 Y174.038 E0.06180 ; infill
G1 X172.676 Y166.962 E0.68104 ; infill
G1 X171.768 Y166.962 E0.06180 ; infill
G1 X164.692 Y174.038 E0.68104 ; infill
G1 X163.785 Y174.038 E0.06180 ; infill
G1 X170.860 Y166.962 E0.68104 ; infill
G1 X169.952 Y166.962 E0.06180 ; infill
G1 X162.877 Y174.038 E0.68104 ; infill
G1 X161.969 Y174.038 E0.06180 ; infill
G1 X169.044 Y166.962 E0.68104 ; infill
G1 X168.136 Y166.962 E0.06180 ; infill
G1 X161.962 Y173.136 E0.59426 ; infill
G1 X161.962 Y172.228 E0.06180 ; infill
G1 X167.228 Y166.962 E0.50686 ; infill
G1 X166.320 Y166.962 E0.06180 ; infill
G1 X161.962 Y171.320 E0.41947 ; infill
G1 X161.962 Y170.412 E0.06180 ; infill
G1 X165.412 Y166.962 E0.33208 ; infill
G1 X164.504 Y166.962 E0.06180 ; infill
G1 X161.962 Y169.504 E0.24469 ; infill
G1 X161.962 Y168.596 E0.06180 ; infill
G1 X163.596 Y166.962 E0.15729 ; infill
G1 X162.689 Y166.962 E0.06180 ; infill
G1 X161.676 Y167.975 E0.09743 ; infill
; stop printing object Block1 id:0 copy 0
;LAYER_CHANGE
;Z:0.8
;HEIGHT:0.3
;BEFORE_LAYER_CHANGE
G92 E0.00000
;0.8

;WIPE_START
G1 F9600
G1 X162.689 Y166.962 E-0.33999 ; wipe and retract
G1 X163.596 Y166.962 E-0.21563 ; wipe and retract
G1 X161.962 Y168.596 E-0.54887 ; wipe and retract
M73 P9 R7
G1 X161.962 Y168.746 E-0.03552 ; wipe and retract
;WIPE_END
G1 E-0.06000 F2400 ; retract
G1 Z0.550 F12000 ; lift Z
G1 Z0.800 ; move to next layer (2)
;AFTER_LAYER_CHANGE
;LAYER 2
;LAYERHEIGHT 0.8

; printing object Block1 id:0 copy 0
G1 Z0.850 ; lift Z
G1 X162.086 Y166.486 ; move to first perimeter point
G1 Z0.800 ; restore layer Z
G1 E1.20000 F2400 ;  ; unretract
M204 S800 ; adjust acceleration
;TYPE:Perimeter
;WIDTH:0.7
;HEIGHT:0.3
G1 F3000
G1 X179.514 Y166.486 E1.17446 ; perimeter
G1 X179.514 Y174.514 E0.54103 ; perimeter
G1 X161.486 Y174.514 E1.21489 ; perimeter
G1 X161.486 Y166.486 E0.54103 ; perimeter
G1 X161.996 Y166.486 E0.03437 ; perimeter
M204 S1000 ; adjust acceleration
;WIPE_START
G1 F9600
G1 X166.796 Y166.486 E-1.14000 ; wipe and retract
;WIPE_END
G1 E-0.06000 F2400 ; retract
G1 Z0.850 F12000 ; lift Z
G1 X160.850 Y165.850 ; move to first perimeter point
G1 Z0.800 ; restore layer Z
G1 E1.20000 F2400 ;  ; unretract
M204 S800 ; adjust acceleration
;TYPE:External perimeter
G1 F2100
G1 X180.150 Y165.850 E1.30056 ; perimeter
G1 X180.150 Y175.150 E0.62669 ; perimeter
G1 X160.850 Y175.150 E1.30056 ; perimeter
G1 X160.850 Y165.940 E0.62063 ; perimeter
M204 S1000 ; adjust acceleration
G1 X161.443 Y165.939 F12000 ; move inwards before travel
;WIPE_START
G1 F9600
G1 X165.650 Y165.918 E-1.14000 ; wipe and retract
;WIPE_END
G1 E-0.06000 F2400 ; retract
G1 Z0.850 F12000 ; lift Z
G1 X178.025 Y166.676 ; move to first infill point
G1 Z0.800 ; restore layer Z
G1 E1.20000 F2400 ;  ; unretract
;TYPE:Solid infill
;WIDTH:0.706381
G1 F4672
G1 X179.038 Y167.689 E0.09745 ; infill
G1 X179.038 Y168.597 E0.06180 ; infill
G1 X177.403 Y166.962 E0.15731 ; infill
G1 X176.495 Y166.962 E0.06180 ; infill
G1 X179.038 Y169.505 E0.24470 ; infill
G1 X179.038 Y170.412 E0.06180 ; infill
G1 X175.588 Y166.962 E0.33209 ; infill
G1 X174.680 Y166.962 E0.06180 ; infill
G1 X179.038 Y171.320 E0.41948 ; infill
G1 X179.038 Y172.228 E0.06180 ; infill
M73 P10 R7
G1 X173.772 Y166.962 E0.50688 ; infill
G1 X172.864 Y166.962 E0.06180 ; infill
G1 X179.038 Y173.136 E0.59427 ; infill
G1 X179.038 Y174.038 E0.06135 ; infill
G1 X171.956 Y166.962 E0.68135 ; infill
G1 X171.048 Y166.962 E0.06180 ; infill
G1 X178.123 Y174.038 E0.68104 ; infill
G1 X177.215 Y174.038 E0.06180 ; infill
G1 X170.140 Y166.962 E0.68104 ; infill
G1 X169.232 Y166.962 E0.06180 ; infill
G1 X176.307 Y174.038 E0.68104 ; infill
G1 X175.399 Y174.038 E0.06180 ; infill
G1 X168.324 Y166.962 E0.68104 ; infill
G1 X167.416 Y166.962 E0.06180 ; infill
G1 X174.492 Y174.038 E0.68104 ; infill
G1 X173.584 Y174.038 E0.06180 ; infill
G1 X166.508 Y166.962 E0.68104 ; infill
G1 X165.600 Y166.962 E0.06180 ; infill
G1 X172.676 Y174.038 E0.68104 ; infill
G1 X171.768 Y174.038 E0.06180 ; infill
G1 X164.692 Y166.962 E0.68104 ; infill
G1 X163.785 Y166.962 E0.06180 ; infill
G1 X170.860 Y174.038 E0.68104 ; infill
G1 X169.952 Y174.038 E0.06180 ; infill
G1 X162.877 Y166.962 E0.68104 ; infill
G1 X161.969 Y166.962 E0.06180 ; infill
G1 X169.044 Y174.038 E0.68104 ; infill
G1 X168.136 Y174.038 E0.06180 ; infill
G1 X161.962 Y167.864 E0.59426 ; infill
G1 X161.962 Y168.772 E0.06180 ; infill
G1 X167.228 Y174.038 E0.50686 ; infill
G1 X166.320 Y174.038 E0.06180 ; infill
G1 X161.962 Y169.680 E0.41947 ; infill
G1 X161.962 Y170.588 E0.06180 ; infill
G1 X165.412 Y174.038 E0.33208 ; infill
G1 X164.504 Y174.038 E0.06180 ; infill
G1 X161.962 Y171.496 E0.24469 ; infill
G1 X161.962 Y172.404 E0.06180 ; infill
G1 X163.596 Y174.038 E0.15729 ; infill
G1 X162.689 Y174.038 E0.06180 ; infill
G1 X161.676 Y173.025 E0.09743 ; infill
; stop printing object Block1 id:0 copy 0
M106 S252 ; enable fan
;LAYER_CHANGE
;Z:1.1
;HEIGHT:0.3
;BEFORE_LAYER_CHANGE
G92 E0.00000
;1.1

;WIPE_START
G1 F9600
G1 X162.689 Y174.038 E-0.33999 ; wipe and retract
G1 X163.596 Y174.038 E-0.21563 ; wipe and retract
G1 X161.962 Y172.404 E-0.54887 ; wipe and retract
G1 X161.962 Y172.254 E-0.03552 ; wipe and retract
;WIPE_END
G1 E-0.06000 F2400 ; retract
G1 Z0.850 F12000 ; lift Z
